shield-sun.svg

<svg fill="currentColor" viewBox="0 0 24 24"><path d="M12 1 3 5v6c0 5.55 3.84 10.74 9 12 5.16-1.26 9-6.45 9-12V5zm0 7.89c1.6 0 2.89 1.29 2.89 2.89S13.6 14.67 12 14.67s-2.89-1.3-2.89-2.89 1.3-2.89 2.89-2.89M12 6l1.38 2q-.63-.27-1.38-.27c-.75 0-.95.09-1.38.27zM7 8.89l2.4-.2c-.34.31-.66.65-.9 1.07-.25.42-.4.86-.5 1.32zm0 5.78 1.03-2.17c.08.43.24.88.47 1.3.25.43.56.79.9 1.08zm10-5.78-1 2.19c-.1-.46-.26-.9-.5-1.32s-.55-.76-.9-1.08zm0 5.78-2.4.2c.34-.29.65-.65.9-1.07.24-.42.39-.87.47-1.3zm-5 2.88-1.39-1.98c.43.15.89.25 1.39.25s.95-.1 1.37-.25z"/></svg>

<svg  viewBox="0 0 24 24" fill="currentColor"><path  d="M12 1L3 5V11C3 16.55 6.84 21.74 12 23C17.16 21.74 21 16.55 21 11V5L12 1M12 8.89C13.6 8.89 14.89 10.18 14.89 11.78S13.6 14.67 12 14.67 9.11 13.37 9.11 11.78 10.41 8.89 12 8.89M12 6L13.38 8C12.96 7.82 12.5 7.73 12 7.73S11.05 7.82 10.62 8L12 6M7 8.89L9.4 8.69C9.06 9 8.74 9.34 8.5 9.76C8.25 10.18 8.1 10.62 8 11.08L7 8.89M7 14.67L8.03 12.5C8.11 12.93 8.27 13.38 8.5 13.8C8.75 14.23 9.06 14.59 9.4 14.88L7 14.67M17 8.89L16 11.08C15.9 10.62 15.74 10.18 15.5 9.76C15.26 9.34 14.95 9 14.6 8.68L17 8.89M17 14.67L14.6 14.87C14.94 14.58 15.25 14.22 15.5 13.8C15.74 13.38 15.89 12.93 15.97 12.5L17 14.67M12 17.55L10.61 15.57C11.04 15.72 11.5 15.82 12 15.82C12.5 15.82 12.95 15.72 13.37 15.57L12 17.55Z"/></svg>
